X:1
T:Title
%%score [ 1 2 3 ]
L:1/8
Q:1/4=96
M:2/2
K:Ab
V:1 treble nm="MusicXML Part"
V:2 treble nm="MusicXML Part"
V:3 treble nm="MusicXML Part"
V:1
 z8 | z8 | z8 | z8 | z8 | z8 | z8 | z8 | z8 | c2 cf e2 z2 | E>EAA GGcc | e=dcB =A2 z F | %12
w: |||||||||gen- tle Ro- bin,|Tell me how thy lem- man doth and|thou shall know of mine. My|
 c>cB_A e>=dcB | _dccB c2 z2 | E>EAA GG/G/cc | e=dcB =A2 z2 | c2 f2 e2 z2 | c2 cf e2 z2 | %18
w: la- dy is un- kind I wis, A-|lack, why is she so|loveth a- no- ther bet- ter than me and|yet she will say no.|Ah, Ro- bin,|gen- tle Ro- bin,|
 E>EAA GGcc | e=dcB =A2 z F | c>cBA c>cFF | c>ccB c2 z F | c>cAA G>Gcc | e=dcB =A2 z2 | %24
w: Tell me how thy lem- man doth and|thou shall know of mine. I|can not think wuch dou- ble- ness for|I find wo- men true, In|faith my la- dy loveth me well she|will change for no new|
 c2 f2 e2 z2 | c2 cf e2 z2 | E>EAA GGcc | e=dcB !fermata!=A4 |] %28
w: Ah, Ro- bin,|gen- tle Ro- bin,|Tell me how thy lem- man doth and|thou shall know of mine.|
V:2
 A2 F2 G2 z2 | A2 GF G2 z2 | G>Gcc B>BAA | BBGG F2 z2 | F2 D2 C2 z2 | F2 ED C2 z2 | CCCC EEFF | %7
w: Ah, Ro- bin,|gen- tle Ro- bin,|Tell me how thy lem- man doth and|thou shall know of mine.|Ah, Ro- bin,|gen- tle Ro- bin,|Tell me how thy lem- man doth and|
 GGCC F2 z2 | A2 F2 G2 z2 | A2 GF G2 z2 | G>Gcc B>BAA | BBGG F2 z2 | F2 D2 C2 z2 | F2 ED C2 z2 | %14
w: thou shall know of mine.|Ah, Ro- bin,|gen- tle Ro- bin,|Tell me how thy lem- man doth and|thou shall know of mine.|Ah, Ro- bin,|gen- tle Ro- bin,|
 CCCC EEFF | GGCC F2 z2 | A2 F2 G2 z2 | A2 GF G2 z2 | G>Gcc B>BAA | BBGG F2 z2 | F2 D2 C2 z2 | %21
w: Tell me how thy lem- man doth and|thou shall know of mine.|Ah, Ro- bin,|gen- tle Ro- bin,|Tell me how thy lem- man doth and|thou shall know of mine.|Ah, Ro- bin,|
 F2 ED C2 z2 | CCCC EEFF | GGCC F2 z2 | A2 F2 G2 z2 | A2 GF G2 z2 | G>Gcc B>BAA | %27
w: gen- tle Ro- bin,|Tell me how thy lem- man doth and|thou shall know of mine.|Ah, Ro- bin,|gen- tle Ro- bin,|Tell me how thy lem- man doth and|
 BBGG !fermata!F4 |] %28
w: thou shall know of mine.|
V:3
 z8 | z8 | z8 | z8 | A2 F2 G2 z2 | A2 GF G2 z2 | G>Gcc B>BAA | BBGG F2 z2 | F2 D2 C2 z2 | %9
w: ||||Ah, Ro- bin,|gen- tle Ro- bin,|Tell me how thy lem- man doth and|thou shall know of mine.|Ah, Ro- bin,|
 F2 ED C2 z2 | CCCC EEFF | GGCC F2 z2 | _A2 F2 G2 z2 | A2 GF G2 z2 | G>Gcc B>BAA | BBGG F2 z2 | %16
w: gen- tle Ro- bin,|Tell me how thy lem- man doth and|thou shall know of mine.|Ah, Ro- bin,|gen- tle Ro- bin,|Tell me how thy lem- man doth and|thou shall know of mine.|
 F2 D2 C2 z2 | F2 ED C2 z2 | CCCC EEFF | GGCC F2 z2 | A2 F2 G2 z2 | A2 GF G2 z2 | G>Gcc B>BAA | %23
w: Ah, Ro- bin,|gen- tle Ro- bin,|Tell me how thy lem- man doth and|thou shall know of mine.|Ah, Ro- bin,|gen- tle Ro- bin,|Tell me how thy lem- man doth and|
 BBGG F2 z2 | F2 D2 C2 z2 | F2 ED C2 z2 | CCCC EEFF | GGCC !fermata!F4 |] %28
w: thou shall know of mine.|Ah, Ro- bin,|gen- tle Ro- bin,|Tell me how thy lem- man doth and|thou shall know of mine.|

